!!!COM:	Busnoys, Antoine
!!!CDT:	~1430///-1492/11/06
!!!OTL:	Corps digne / Dieu quel mariage
!!!AGN:	Song; Chanson
!!!SCT:	Bus3016
!!!SCA:	Bus3016
!!!voices:	4
**kern	**kern	**kern	**kern
*staff4	*staff3	*staff2	*staff1
*Ivox	*Ivox	*Ivox	*Ivox
*I"Contratenor	*I"Tenor	*I"Contratenor	*I"Superius
*I'Ct	*I'T	*I'Ct	*I'S
*clefF4	*clefGv2	*clefGv2	*clefG2
*k[]	*k[b-]	*k[b-]	*k[]
*M2/1	*M2/1	*M2/1	*M2/1
*met(C|)	*met(C|)	*met(C|)	*met(C|)
=1-	=1-	=1-	=1-
1c	0r	0g	[0cc
1c	.	.	.
=2	=2	=2	=2
1A	0r	1f	1cc]
1F	.	[1f	1a
=3	=3	=3	=3
0G	0r	1f]	0b-
.	.	1e	.
=4	=4	=4	=4
[0F	1c	[0f	0a
.	1c	.	.
=5	=5	=5	=5
1F]	1A	0f]	1f
1D	1F	.	[1f
=6	=6	=6	=6
0C	1G	0r	1f]
.	1G	.	1e
=7	=7	=7	=7
0r	0F	1c	1.f
.	.	1c	.
.	.	.	2g
=8	=8	=8	=8
0r	1.c	1A	1a
.	.	1F	1cc
.	2d	.	.
=9	=9	=9	=9
0r	1e	0G	2b-i
.	.	.	1b-i
.	1e	.	.
.	.	.	2g
=10	=10	=10	=10
0D	0f	0F	0a
=11	=11	=11	=11
1C	0e	1.c	1r
[1AA	.	.	[1cc
.	.	2d	.
=12	=12	=12	=12
2AA]	0r	1e	2cc]
2BB-	.	.	2b-i
2C	.	1e	1g
4BB-i	.	.	.
4C	.	.	.
=13	=13	=13	=13
2D	1d	0f	1f
1BB-i	.	.	.
.	1d	.	1d
2AA	.	.	.
=14	=14	=14	=14
0C	1c	1e	1r
.	1c	1r	1g
=15	=15	=15	=15
1r	1.d	1d	2.f
.	.	.	4g
[1F	.	1d	2a
.	4c	.	[2a
.	4B-	.	.
=16	=16	=16	=16
2F]	0A	1c	2a]
2G	.	.	4g
.	.	.	4f
1A	.	1c	1e
=17	=17	=17	=17
1D	0r	1.d	2d
.	.	.	2.f
[1F	.	.	.
.	.	.	4g
.	.	4c	[2a
.	.	4B-	.
=18	=18	=18	=18
2F]	1r	1A	2a]
2E	.	.	2g
1D	1A	1r	2f
.	.	.	4e
.	.	.	4d
=19	=19	=19	=19
1.C	1c	0r	1.e
.	1c	.	.
2D	.	.	2f
=20	=20	=20	=20
1E	0c	0r	1g
[1F	.	.	[1a
=21	=21	=21	=21
2F]	0d	0r	2a]
2D	.	.	2f
[1G	.	.	[1b-
=22	=22	=22	=22
2G]	0e	0r	2b-]
2E	.	.	2g
[1A	.	.	[1cc
=23	=23	=23	=23
2A]	1.f	0r	2cc]
2F	.	.	1a
2.A	.	.	.
.	4e	.	4g
4B	4d	.	4f
=24	=24	=24	=24
2c	0c	0r	2e
2.A	.	.	2.a
4G	.	.	4b
4F	.	.	2cc
4E	.	.	.
=25	=25	=25	=25
2D	0f	0r	2dd
2.F	.	.	2.a
4G	.	.	4b
[2A	.	.	[2cc
=26	=26	=26	=26
4A]	1e	0r	4cc]
4G	.	.	4b
2.E	.	.	2g
.	1d	.	2a
4F	.	.	.
[2G	.	.	[2b-i
=27	=27	=27	=27
4G]	1d	0r	4b-i]
4F	.	.	4a
2D	.	.	2f
2E	1c	.	2g
2F	.	.	2a
=28	=28	=28	=28
4G	0B-	0r	4b-i
4F	.	.	4a
4E	.	.	4g
4D	.	.	4f
2E	.	.	1g
4D	.	.	.
4E	.	.	.
=29	=29	=29	=29
1F	1A	1r	0a
1r	1r	1A	.
=30	=30	=30	=30
1A	0r	1c	1r
2F	.	1c	1a
[2A	.	.	.
=31	=31	=31	=31
2A]	0r	0c	1a
4G	.	.	.
4F	.	.	.
1E	.	.	1g
=32	=32	=32	=32
2.D	0r	0d	2.f
4E	.	.	4g
4F	.	.	2a
4D	.	.	.
2G	.	.	[2b-i
=33	=33	=33	=33
2r	0r	0e	2b-i]
2.A	.	.	2.cc
4B	.	.	4bni
4c	.	.	2g
4A	.	.	.
=34	=34	=34	=34
2d	0r	1.f	1f
2A	.	.	.
2d	.	.	1d
2f	.	4e	.
.	.	4d	.
=35	=35	=35	=35
1.e	0r	0c	1A
.	.	.	2r
[2A	.	.	[2a
=36	=36	=36	=36
2A]	0r	0f	2a]
2B	.	.	2d
2A	.	.	2a
[2d	.	.	2f
=37	=37	=37	=37
2d]	0r	1e	1g
2c#i	.	.	.
2d	.	1d	[1f
[2B	.	.	.
=38	=38	=38	=38
4B]	0r	1d	2f]
4A	.	.	.
2B	.	.	4e
.	.	.	4d
2c	.	1c	2.e
[2A	.	.	.
.	.	.	4f
=39	=39	=39	=39
2A]	0r	0B-	2g
2G	.	.	4f
.	.	.	4e
2G	.	.	1d
2F	.	.	.
=40	=40	=40	=40
1A	0r	0A	1.c
[1A	.	.	.
.	.	.	[2e
=41	=41	=41	=41
2A]	1c	0r	2e]
2G	.	.	2f
1E	1c	.	1g
=42	=42	=42	=42
1F	1A	0r	1c
1D	1F	.	[1f
=43	=43	=43	=43
0C	0G	0r	2f]
.	.	.	2e
.	.	.	2e
.	.	.	2d
=44	=44	=44	=44
0r	0F	1c	0f
.	.	1c	.
=45	=45	=45	=45
0F	1.c	1A	0r
.	.	1F	.
.	2d	.	.
=46	=46	=46	=46
0C	1e	0G	0r
.	1e	.	.
=47	=47	=47	=47
0D	0f	0F	0a
=48	=48	=48	=48
1.AA	0e	1.c	1a
.	.	.	[1cc
2BB	.	2d	.
=49	=49	=49	=49
0C	0r	1e	2cc]
.	.	.	2b
.	.	1e	1g
=50	=50	=50	=50
0D	1d	0f	1f
.	1d	.	[1a
=51	=51	=51	=51
0A	1c	1e	2a]
.	.	.	2g
.	1c	1r	1e
=52	=52	=52	=52
0D	1.d	1d	1f
.	.	1d	1d
.	4c	.	.
.	4B-	.	.
=53	=53	=53	=53
1r	0A	1c	1e
1A	.	1c	1r
=54	=54	=54	=54
1.B-i	0r	1.d	2d
.	.	.	1f
4A	.	4c	2g
4G	.	4B-	.
=55	=55	=55	=55
1F	1c	0A	2a
.	.	.	4g
.	.	.	4f
2C	1c	.	2e
[2F	.	.	[2a
=56	=56	=56	=56
4F]	1A	0r	4a]
4G	.	.	4b
1A	.	.	1cc
.	1F	.	.
4G	.	.	4b
4F	.	.	4a
=57	=57	=57	=57
2E	0G	1c	2g
2D	.	.	1f
1C	.	1c	.
.	.	.	2e
=58	=58	=58	=58
1D	0F	1A	1.f
1F	.	1F	.
.	.	.	[2cc
=59	=59	=59	=59
0C	1c	0G	4cc]
.	.	.	4b
.	.	.	2.g
.	1c	.	.
.	.	.	4f
.	.	.	[2a
=60	=60	=60	=60
0D	1A	0F	4a]
.	.	.	4g
.	.	.	2.f
.	1F	.	.
.	.	.	4e
.	.	.	4d
.	.	.	4c
=61	=61	=61	=61
0C	0G	0c	4d
.	.	.	4e
.	.	.	2.f
.	.	.	4e
.	.	.	4e
.	.	.	4d
=62	=62	=62	=62
0Fl	0Fl	0cl	0fl
==	==	==	==
*-	*-	*-	*-
!!!RDF**kern: l=long note in original notation
!!!RDF**kern: i=editorial accidental
!!!ENC:	Chris Gage 04-20-2015
!!!END:	2015/05/01/
!!!EED:	Jesse Rodin
!!!EEV:	2015/05/10/
!!!ONB:	Translated from MusicXML and edited on 2015/05/10/ by Craig Sapp
!!muse2ps: C^@{COM}^i2I150v85,85,85,150Q16
